StripePaymentSheet/StripePaymentSheet/Resources/StripePaymentSheet.xcassets/PaymentMethods/icon-pm-eps.imageset/icon-pm-eps.svg

<svg xmlns="http://www.w3.org/2000/svg" width="22" height="16" viewBox="0 0 22 16">
  <path d="M8.34,13.0906C8.0264,13.3449 7.6264,13.4967 7.193,13.4967H1.8165C0.8001,13.4967 0,12.647 0,11.6589V6.2536C0,5.3578 0.6451,4.6331 1.4801,4.4774C1.4074,4.3429 1.3697,4.1948 1.3697,4.0577V3.3464L1.3705,3.2924C1.4227,1.6191 2.8171,0.3 4.5041,0.3C6.2229,0.3 7.6398,1.67 7.6398,3.3887V4.0577C7.6398,4.2149 7.5969,4.3577 7.5301,4.4779C8.3729,4.6374 9.0096,5.3832 9.0096,6.2689L9.0088,6.8687C9.6556,5.9597 10.7114,5.3645 11.9072,5.3645C13.1437,5.3645 14.2271,5.9987 14.8645,6.9582C15.2281,6.0282 16.131,5.3645 17.1898,5.3645H20.7282V8.1721H20.6814C21.1988,8.6351 21.525,9.3092 21.525,10.0512C21.525,11.4057 20.4337,12.5588 19.0643,12.5786L19.0542,12.5788L11.1706,12.5787V15.7H8.34V13.0906Z" fill="#ffffff" fill-rule="evenodd"/>
  <path d="M19.0542,8.2372C20.0282,8.2513 20.825,9.0665 20.825,10.0512C20.825,11.0359 20.0282,11.8646 19.0542,11.8787H13.764C14.4249,11.6033 14.7504,11.0525 15.0852,10.4098H19.0289C19.2363,10.4098 19.405,10.2567 19.405,10.0488C19.405,9.8408 19.2363,9.6754 19.0289,9.6754H17.1898C16.1991,9.6754 15.3931,8.8634 15.3931,7.8699C15.3931,6.8765 16.1991,6.0645 17.1898,6.0645H20.0282V7.4721H17.1898C16.9825,7.4721 16.8137,7.6552 16.8137,7.8631C16.8137,8.0711 16.9825,8.2372 17.1898,8.2372H19.0542ZM11.9072,6.0645C13.4874,6.0645 14.7669,7.361 14.7669,8.9604C14.7669,10.5598 13.4844,11.8787 11.9042,11.8787H10.4706V15H9.04V8.9655C9.04,7.3661 10.3271,6.0645 11.9072,6.0645ZM11.9072,10.4098C12.7024,10.4098 13.3493,9.7703 13.3493,8.9604C13.3493,8.1504 12.7024,7.4915 11.9072,7.4915C11.1121,7.4915 10.4706,8.1504 10.4706,8.9604V10.4098H11.9072Z" fill="#5F6360"/>
  <path d="M4.5109,11.8787H8.2926C8.2038,12.3989 7.7441,12.7967 7.193,12.7967H1.8164C1.2024,12.7967 0.7,12.2763 0.7,11.6589V6.2536C0.7,5.6363 1.2024,5.1465 1.8164,5.1465H7.193C7.8071,5.1465 8.3095,5.6515 8.3095,6.2689L8.3043,10.4098H4.5109C3.9297,10.4098 3.4258,10.1344 3.1766,9.6448H7.3964V8.9426C7.3964,7.3458 6.093,6.0478 4.5048,6.0478C3.1543,6.0478 2.0185,6.9881 1.7085,8.251C1.7085,8.251 1.6243,8.6739 1.6243,8.9495C1.6243,9.2251 1.7133,9.6437 1.7133,9.6437C2.021,10.9096 3.1582,11.8787 4.5109,11.8787ZM4.5048,7.4218C5.0837,7.4218 5.5872,7.7781 5.8374,8.2372H3.1721C3.4223,7.7781 3.9258,7.4218 4.5048,7.4218ZM6.9398,3.3887V4.0577C6.9398,4.1435 6.8645,4.2284 6.777,4.2284H5.8808C5.7933,4.2284 5.7222,4.1435 5.7222,4.0577V3.3887C5.7222,2.7299 5.1765,2.1939 4.5047,2.1939C3.833,2.1939 3.2872,2.7299 3.2872,3.3887V4.0577C3.2872,4.1435 3.2104,4.2284 3.1229,4.2284H2.2268C2.1392,4.2284 2.0697,4.1435 2.0697,4.0577V3.3398C2.0697,3.3342 2.0692,3.3289 2.0698,3.3235C2.1051,2.0345 3.1811,1 4.504,1C5.8492,1 6.9398,2.0694 6.9398,3.3887Z" fill="#A41760"/>
</svg>

<svg viewBox="0 0 22 16" fill="none" xmlns="http://www.w3.org/2000/svg" role="presentation" focusable="false">
  <path fill-rule="evenodd" clip-rule="evenodd"
    d="M8.34 13.09a1.817 1.817 0 0 1-1.147.407H1.817C.8 13.497 0 12.647 0 11.659V6.254c0-.896.645-1.62 1.48-1.777a.897.897 0 0 1-.11-.42v-.765C1.423 1.62 2.817.3 4.504.3 6.223.3 7.64 1.67 7.64 3.389v.669c0 .157-.043.3-.11.42.843.16 1.48.905 1.48 1.79l-.001.6a3.552 3.552 0 0 1 2.898-1.504c1.237 0 2.32.635 2.957 1.594a2.5 2.5 0 0 1 2.326-1.594h3.538v2.808h-.047c.518.463.844 1.137.844 1.88 0 1.354-1.091 2.507-2.46 2.527H11.17V15.7H8.34v-2.61Z"
    fill="#fff" />
  <path
    d="M19.054 8.237c.974.014 1.771.83 1.771 1.814 0 .985-.797 1.814-1.77 1.828h-5.291c.66-.276.986-.826 1.321-1.47h3.944a.364.364 0 0 0 .376-.36.374.374 0 0 0-.376-.374h-1.84c-.99 0-1.796-.812-1.796-1.805 0-.994.806-1.806 1.797-1.806h2.838v1.408H17.19a.39.39 0 0 0-.376.391c0 .208.169.374.376.374h1.864Zm-7.147-2.173c1.58 0 2.86 1.297 2.86 2.896 0 1.6-1.283 2.919-2.863 2.919h-1.433V15H9.04V8.965c0-1.599 1.287-2.9 2.867-2.9Zm0 4.346a1.44 1.44 0 0 0 1.442-1.45c0-.81-.647-1.469-1.442-1.469-.795 0-1.436.66-1.436 1.47v1.449h1.436Z"
    fill="#5F6360" />
  <path
    d="M4.511 11.879h3.782c-.09.52-.549.918-1.1.918H1.817c-.615 0-1.117-.52-1.117-1.138V6.254a1.11 1.11 0 0 1 1.117-1.108h5.376c.614 0 1.117.506 1.117 1.123l-.006 4.14H4.511c-.581 0-1.085-.275-1.334-.764h4.22v-.702a2.9 2.9 0 0 0-2.892-2.895c-1.35 0-2.486.94-2.796 2.203 0 0-.085.423-.085.698 0 .276.09.695.09.695.307 1.266 1.444 2.235 2.797 2.235Zm-.006-4.457c.579 0 1.082.356 1.332.815H3.172c.25-.459.754-.815 1.333-.815ZM6.94 3.389v.669c0 .086-.075.17-.163.17h-.896c-.088 0-.159-.084-.159-.17v-.67c0-.658-.545-1.194-1.217-1.194s-1.218.536-1.218 1.195v.669c0 .086-.077.17-.164.17h-.896c-.088 0-.157-.084-.157-.17v-.735C2.105 2.034 3.18 1 4.504 1 5.85 1 6.94 2.07 6.94 3.389Z"
    fill="#A41760" />
</svg>
